logos/pocket-base.svg

<?xml version="1.0" encoding="UTF-8"?>
<svg width="256px" height="256px" viewBox="0 0 256 256" version="1.1" xmlns="http://www.w3.org/2000/svg" preserveAspectRatio="xMidYMid">
    <title>PocketBase</title>
    <g>
        <path d="M9.45943152,170.335917 C4.78314722,170.335917 0.992248062,166.545442 0.992248062,161.868734 L0.992248062,9.45943152 C0.992248062,4.78314722 4.78314722,0.992248062 9.45943152,0.992248062 L161.868734,0.992248062 C166.545442,0.992248062 170.335917,4.78314722 170.335917,9.45943152 L170.335917,85.6640827 L246.540568,85.6640827 C251.217276,85.6640827 255.007752,89.4552641 255.007752,94.1312661 L255.007752,246.540568 C255.007752,251.217276 251.217276,255.007752 246.540568,255.007752 L94.1312661,255.007752 C89.4552641,255.007752 85.6640827,251.217276 85.6640827,246.540568 L85.6640827,170.335917 Z" fill="#FFFFFF"></path>
        <path d="M161.868734,0 L9.45943152,0 C4.23514375,0 0,4.23514375 0,9.45943152 L0,161.868734 L0.00376012403,162.138071 C0.146328782,167.238077 4.32508151,171.328165 9.45943152,171.328165 L84.6715039,171.327504 L84.6718346,246.540568 C84.6718346,251.765049 88.9070297,256 94.1312661,256 L246.540568,256 C251.76528,256 256,251.76528 256,246.540568 L256,94.1312661 L255.99624,93.8619457 C255.853673,88.7622475 251.674971,84.6718346 246.540568,84.6718346 L171.327504,84.6715039 L171.328165,9.45943152 C171.328165,4.2350052 167.093306,0 161.868734,0 Z M161.868734,1.98449612 C165.997284,1.98449612 169.343669,5.3309968 169.343669,9.45943152 L169.343669,85.6640827 C169.343669,86.2120862 169.787914,86.6563307 170.335917,86.6563307 L246.540568,86.6563307 C250.669016,86.6563307 254.015504,90.0030111 254.015504,94.1312661 L254.015504,246.540568 C254.015504,250.669273 250.669273,254.015504 246.540568,254.015504 L94.1312661,254.015504 C90.0030111,254.015504 86.6563307,250.669016 86.6563307,246.540568 L86.6563307,170.335917 C86.6563307,169.787914 86.2120862,169.343669 85.6640827,169.343669 L9.45943152,169.343669 C5.3309968,169.343669 1.98449612,165.997284 1.98449612,161.868734 L1.98449612,9.45943152 C1.98449612,5.33115069 5.33115069,1.98449612 9.45943152,1.98449612 L161.868734,1.98449612 Z" fill="#16161A"></path>
        <path d="M57.4401378,128 C53.5432577,128 50.3841516,124.841035 50.3841516,120.944014 L50.3841516,43.3281654 C50.3841516,39.4312853 53.5432577,36.2721792 57.4401378,36.2721792 L83.9219597,36.2721792 C89.0516617,36.2721792 93.8426763,36.7880423 98.2950036,37.8196981 C102.843998,38.7576503 106.764304,40.3990138 110.055216,42.7437886 C113.442795,44.9947893 116.104313,48.0429754 118.040475,51.8884173 C119.975932,55.6400852 120.944014,60.2829947 120.944014,65.8162991 C120.944014,71.1626198 119.927952,75.8054587 117.895122,79.7441102 C115.959665,83.6834674 113.297442,86.9193426 109.909863,89.4517361 C106.522284,91.9841295 102.601978,93.8603163 98.1496503,95.0795907 C93.697323,96.2988651 88.9549947,96.9085023 83.9219597,96.9085023 L78.7823793,96.9085023 C74.8853581,96.9085023 71.7263931,100.067467 71.7263931,103.964489 L71.7263931,120.944014 C71.7263931,124.841035 68.5674281,128 64.6704069,128 L57.4401378,128 Z M71.7263931,73.3916059 C71.7263931,77.288627 74.8853581,80.4475921 78.7823793,80.4475921 L82.615191,80.4475921 C94.23005,80.4475921 100.037127,75.5704944 100.037127,65.8162991 C100.037127,61.033046 98.5370239,57.6567566 95.5368186,55.6869369 C92.6332803,53.7173289 88.3256007,52.7325249 82.615191,52.7325249 L78.7823793,52.7325249 C74.8853581,52.7325249 71.7263931,55.8916311 71.7263931,59.78837 L71.7263931,73.3916059 Z" fill="#16161A"></path>
        <path d="M142.111972,219.727821 C138.214951,219.727821 135.055986,216.568856 135.055986,212.671835 L135.055986,135.055986 C135.055986,131.158965 138.214951,128 142.111972,128 L166.721136,128 C171.637041,128 176.16769,128.375378 180.312376,129.12543 C184.55373,129.782342 188.217198,131.001617 191.301369,132.783253 C194.386246,134.565595 196.795866,136.910299 198.530933,139.817366 C200.362667,142.725138 201.277828,146.382961 201.277828,150.791541 C201.277828,152.854711 200.940552,154.917882 200.266,156.981758 C199.687409,159.044928 198.723561,160.967684 197.374457,162.749321 C196.024646,164.531663 194.33756,166.126316 192.313903,167.53328 C190.35375,168.895085 188.033036,169.905502 185.35035,170.563826 C185.194413,170.602634 185.08434,170.741637 185.08434,170.901807 L185.08434,170.901807 C185.08434,171.069034 185.204997,171.212271 185.369402,171.243317 C191.975921,172.476704 196.9892,174.803768 200.410647,178.225216 C203.880781,181.69535 205.615848,186.525878 205.615848,192.716094 C205.615848,197.405503 204.699981,201.438705 202.868953,204.814994 C201.037219,208.191283 198.482952,211.005211 195.205446,213.25607 C191.927941,215.413085 188.07255,217.055013 183.637863,218.180443 C179.300548,219.212028 174.577271,219.727821 169.468737,219.727821 L142.111972,219.727821 Z M156.310734,157.80378 C156.310734,161.700801 159.469699,164.859766 163.36672,164.859766 L165.709307,164.859766 C170.914508,164.859766 174.673938,163.875456 176.98689,161.905425 C179.300548,159.936099 180.457024,157.168741 180.457024,153.604763 C180.457024,150.228473 179.252567,147.836494 176.842242,146.430236 C174.52929,144.929428 170.865822,144.178671 165.853955,144.178671 L163.36672,144.178671 C159.469699,144.178671 156.310734,147.338341 156.310734,151.234657 L156.310734,157.80378 Z M156.310734,196.493164 C156.310734,200.389479 159.469699,203.54915 163.36672,203.54915 L167.732964,203.54915 C179.107919,203.54915 184.795044,199.422104 184.795044,191.168717 C184.795044,187.135515 183.397253,184.227743 180.601672,182.446106 C177.902757,180.663764 173.613423,179.772593 167.732964,179.772593 L163.36672,179.772593 C159.469699,179.772593 156.310734,182.931558 156.310734,186.82858 L156.310734,196.493164 Z" fill="#16161A"></path>
    </g>
</svg>

<svg preserveAspectRatio="xMidYMid" viewBox="0 0 256 256" xmlns="http://www.w3.org/2000/svg">
  <path fill="#FFF" d="M9.46 170.336a8.467 8.467 0 0 1-8.468-8.467V9.459A8.467 8.467 0 0 1 9.46.992h152.41a8.467 8.467 0 0 1 8.467 8.467v76.205h76.205a8.467 8.467 0 0 1 8.467 8.467v152.41a8.467 8.467 0 0 1-8.467 8.467H94.13a8.467 8.467 0 0 1-8.467-8.467v-76.205Z"/>
  <path fill="#16161A" d="M161.869 0H9.459A9.46 9.46 0 0 0 0 9.46v152.409l.004.27a9.46 9.46 0 0 0 9.455 9.19l75.213-.001v75.213a9.46 9.46 0 0 0 9.46 9.459H246.54a9.459 9.459 0 0 0 9.459-9.46V94.132l-.004-.27a9.46 9.46 0 0 0-9.455-9.19h-75.213V9.46A9.46 9.46 0 0 0 161.868 0Zm0 1.984a7.475 7.475 0 0 1 7.475 7.475v76.205c0 .548.444.992.992.992h76.205a7.475 7.475 0 0 1 7.475 7.475v152.41a7.474 7.474 0 0 1-7.475 7.475H94.13a7.475 7.475 0 0 1-7.475-7.475v-76.205a.992.992 0 0 0-.992-.992H9.46a7.475 7.475 0 0 1-7.475-7.475V9.459A7.475 7.475 0 0 1 9.46 1.984h152.41Z"/>
  <path fill="#16161A" d="M57.44 128a7.056 7.056 0 0 1-7.056-7.056V43.328a7.056 7.056 0 0 1 7.056-7.056h26.482c5.13 0 9.92.516 14.373 1.548 4.549.938 8.47 2.579 11.76 4.924 3.388 2.25 6.05 5.299 7.985 9.144 1.936 3.752 2.904 8.395 2.904 13.928 0 5.347-1.016 9.99-3.049 13.928-1.935 3.94-4.598 7.175-7.985 9.708-3.388 2.532-7.308 4.408-11.76 5.628-4.453 1.219-9.195 1.829-14.228 1.829h-5.14a7.056 7.056 0 0 0-7.056 7.055v16.98A7.056 7.056 0 0 1 64.67 128h-7.23Zm14.286-54.608a7.056 7.056 0 0 0 7.056 7.056h3.833c11.615 0 17.422-4.878 17.422-14.632 0-4.783-1.5-8.16-4.5-10.13-2.904-1.969-7.211-2.953-12.922-2.953h-3.833a7.056 7.056 0 0 0-7.056 7.055v13.604Z"/>
  <path fill="#16161A" d="M142.112 219.728a7.056 7.056 0 0 1-7.056-7.056v-77.616a7.056 7.056 0 0 1 7.056-7.056h24.61c4.915 0 9.446.375 13.59 1.125 4.242.657 7.905 1.877 10.99 3.658 3.084 1.783 5.494 4.127 7.229 7.034 1.832 2.908 2.747 6.566 2.747 10.975 0 2.063-.337 4.126-1.012 6.19-.579 2.063-1.542 3.986-2.892 5.767-1.35 1.783-3.036 3.377-5.06 4.784-1.96 1.362-4.281 2.373-6.964 3.03a.35.35 0 0 0-.266.339c0 .167.121.31.285.341 6.607 1.234 11.62 3.56 15.042 6.982 3.47 3.47 5.205 8.3 5.205 14.491 0 4.69-.916 8.723-2.747 12.099-1.832 3.376-4.386 6.19-7.664 8.441-3.277 2.157-7.132 3.799-11.567 4.924-4.337 1.032-9.06 1.548-14.17 1.548h-27.356Zm14.199-61.924a7.056 7.056 0 0 0 7.056 7.056h2.342c5.206 0 8.965-.985 11.278-2.955 2.314-1.969 3.47-4.736 3.47-8.3 0-3.377-1.204-5.769-3.615-7.175-2.313-1.5-5.976-2.251-10.988-2.251h-2.487a7.056 7.056 0 0 0-7.056 7.056v6.569Zm0 38.69a7.056 7.056 0 0 0 7.056 7.055h4.366c11.375 0 17.062-4.127 17.062-12.38 0-4.033-1.398-6.941-4.193-8.723-2.7-1.782-6.989-2.673-12.869-2.673h-4.366a7.056 7.056 0 0 0-7.056 7.056v9.664Z"/>
</svg>
